X: 1
T: While shepherds watched their flocks at night
C: Words by Nahum Tate & Nicholas Brody
C: Music by George Frederick Handel
M:4/4
K:C
L:1/4
Q:1/4=120
|: (E/F/) | "C" E G "F" GF | "C" E (C/D/) C (C/D/) | "C" E E E (D/C/) |
w: While - shep-herds watched their flocks by - night,  All - seat-ed on the -
"G" C B, z (G/A/) | "G" B G "Dm" D D | "G7" B, (C/B,/) "C" C (A/G/) |
w: ground, - The - an-gel of the lord came - down, and -
"F" F "C" E "F" C "C" C | "F" F "C" E z G | "C" E C "G7" C (B,/C/) | "C" C3 :|
w:  glo-ry shone a-round, - And glo-ry shone a--round.
W: "Fear not", he said, for mighty dread
W: Had seized their troubled minds,
W: "Glad tidings of great joy I bring
W: To you and all mankind,  To you and all mankind."
W:
W: From _The Reader's Digest Merry Christmas Songbook_, p. 182.

